X:342
T:Whistler from Rosslea
R:Reel
C:Ed Reavy
P:APB Martin Hayes
S:ricke~11.abc
Z:Transcription:?? & Mike Long, chords:Mike Long
M:C
L:1/8
K:Eb
"Cm"CDEF G2FD|GEFD EC~C2|"Bb"B,CDE F2EF|"F"GAFG EFDE|\
"Cm"CDEC "Bb"DEFD|
"Gm"G=ABG cBGF|"Eb"EFGE "Bb"FADF|"Gm"ECDB, "Cm"C4:|\
|:"Cm"c2Gc EcGc|c2dc cBG=A|
"Bb"B2FB DBFB|"F"B=AGF ECB,C|\
"Cm"GccB cBGF|"Eb"EFG=A B3c|"Cm"cBGF "Eb"EFGE|"Bb"FB,DB, "Cm"C4:|
